X: 39
T: Hughie Rory MacKinnon
T: Strathspey, A Mixolydian
L: 1/16
M: C
K: A Mixolydian
|: f1| e1A3 c3A1 e1A3 c3A1| B1d3 g1d3 B3A1 G3f1| e1A3 c3A1 e1A3 c3A1| B3A1 G1B3 A4A3:| 
|: g1| f3e1 a3f1 e3c1 A3c1| B1d3 g3d1 B3A1 G3g1| f3e1 a3f1 e3c1 A3c1| B3A1 G1B3 A4A3:| 
D: The Beatons of Mabou, Rounder 7011
D: Jackie Dunn, Dunn to a "T", JAD-1
